docs/.gitbook/assets/icon-arrows-contract-16@dark.svg

<svg width="32" height="32" viewBox="0 0 16 16" fill="none" xmlns="http://www.w3.org/2000/svg">
<rect x="0" y="0" width="16" height="16" fill="#181c1f"/>
<path fill-rule="evenodd" clip-rule="evenodd" d="M14.7803 1.21967C15.0732 1.51256 15.0732 1.98744 14.7803 2.28033L10.8107 6.25L13 6.25C13.4142 6.25 13.75 6.58579 13.75 7C13.75 7.41421 13.4142 7.75 13 7.75L9 7.75C8.58579 7.75 8.25 7.41421 8.25 7L8.25 3C8.25 2.58579 8.58579 2.25 9 2.25C9.41421 2.25 9.75 2.58579 9.75 3L9.75 5.18934L13.7197 1.21967C14.0126 0.926777 14.4874 0.926777 14.7803 1.21967ZM2.25 9C2.25 8.58579 2.58579 8.25 3 8.25H7C7.41421 8.25 7.75 8.58579 7.75 9V13C7.75 13.4142 7.41421 13.75 7 13.75C6.58579 13.75 6.25 13.4142 6.25 13V10.8107L2.28033 14.7803C1.98744 15.0732 1.51256 15.0732 1.21967 14.7803C0.926777 14.4874 0.926777 14.0126 1.21967 13.7197L5.18934 9.75H3C2.58579 9.75 2.25 9.41421 2.25 9Z" fill="#fff"/>
</svg>

<svg xmlns="http://www.w3.org/2000/svg" width="32" height="32" fill="none" viewBox="0 0 16 16"><path fill="#181c1f" d="M0 0h16v16H0z"/><path fill="#fff" fill-rule="evenodd" d="M14.78 1.22a.75.75 0 0 1 0 1.06l-3.97 3.97H13a.75.75 0 0 1 0 1.5H9A.75.75 0 0 1 8.25 7V3a.75.75 0 0 1 1.5 0v2.19l3.97-3.97a.75.75 0 0 1 1.06 0M2.25 9A.75.75 0 0 1 3 8.25h4a.75.75 0 0 1 .75.75v4a.75.75 0 0 1-1.5 0v-2.19l-3.97 3.97a.75.75 0 0 1-1.06-1.06l3.97-3.97H3A.75.75 0 0 1 2.25 9" clip-rule="evenodd"/></svg>
